X: 5
T:Jota dos mariñeiros
M:3/4
L:1/8
Q:270
C:E. Otero
R:Jota
B:Leccións de Gaita. OTERO COVELO
K:C
cBAG |: ABAG c2- | cG cBAG | A3GF2- |
F2 BAFG | GAGF B2- | BF BAGF| G3FE2- | E2 cBAG |
ABAG c2- | cG cBAG | A3GF2- | F2 BAGF | GAGF B2- |
BA GFED | C6- |1 C2 cBAG :|2 C4 D2 | F3EF2 | G2A2B2 |
G3FE2- | E4 E2 | G3FG2| A2B2c2 | A3GF2- | F4 D2 | F3EF2|
G2A2B2 | G3FE2- | E4 E2 |: G3FG2 | A2B2c2 | A3GF2|
G2A2B2 | A3GB2| A2G2F2 |1 G3FE2- | E4 E2 :|2 E6- |
E2 ||

